polaris-icons/icons/new-icons/HeaderMajor.svg

<svg width="20" height="20" viewBox="0 0 20 20" fill="none" xmlns="http://www.w3.org/2000/svg">
<path fill-rule="evenodd" clip-rule="evenodd" d="M3.5 5.25C3.5 4.2835 4.2835 3.5 5.25 3.5H14.75C15.7165 3.5 16.5 4.2835 16.5 5.25V6.75C16.5 7.7165 15.7165 8.5 14.75 8.5H5.25C4.2835 8.5 3.5 7.7165 3.5 6.75V5.25ZM5.25 5C5.11193 5 5 5.11193 5 5.25V6.75C5 6.88807 5.11193 7 5.25 7H14.75C14.8881 7 15 6.88807 15 6.75V5.25C15 5.11193 14.8881 5 14.75 5H5.25Z" fill="#4A4A4A"/>
<path d="M3.5 11.25C3.5 10.2835 4.2835 9.5 5.25 9.5H5.75C6.16421 9.5 6.5 9.83579 6.5 10.25C6.5 10.6642 6.16421 11 5.75 11H5.25C5.11193 11 5 11.1119 5 11.25V11.75C5 12.1642 4.66421 12.5 4.25 12.5C3.83579 12.5 3.5 12.1642 3.5 11.75V11.25Z" fill="#4A4A4A"/>
<path d="M3.5 14.75C3.5 15.7165 4.2835 16.5 5.25 16.5H5.75C6.16421 16.5 6.5 16.1642 6.5 15.75C6.5 15.3358 6.16421 15 5.75 15H5.25C5.11193 15 5 14.8881 5 14.75V14.25C5 13.8358 4.66421 13.5 4.25 13.5C3.83579 13.5 3.5 13.8358 3.5 14.25V14.75Z" fill="#4A4A4A"/>
<path d="M14.75 9.5C15.7165 9.5 16.5 10.2835 16.5 11.25V11.75C16.5 12.1642 16.1642 12.5 15.75 12.5C15.3358 12.5 15 12.1642 15 11.75V11.25C15 11.1119 14.8881 11 14.75 11H14.25C13.8358 11 13.5 10.6642 13.5 10.25C13.5 9.83579 13.8358 9.5 14.25 9.5H14.75Z" fill="#4A4A4A"/>
<path d="M14.75 16.5C15.7165 16.5 16.5 15.7165 16.5 14.75V14.25C16.5 13.8358 16.1642 13.5 15.75 13.5C15.3358 13.5 15 13.8358 15 14.25V14.75C15 14.8881 14.8881 15 14.75 15H14.25C13.8358 15 13.5 15.3358 13.5 15.75C13.5 16.1642 13.8358 16.5 14.25 16.5H14.75Z" fill="#4A4A4A"/>
<path d="M11.75 10.25C11.75 10.6642 11.4142 11 11 11H9C8.58579 11 8.25 10.6642 8.25 10.25C8.25 9.83579 8.58579 9.5 9 9.5H11C11.4142 9.5 11.75 9.83579 11.75 10.25Z" fill="#4A4A4A"/>
<path d="M11 16.5C11.4142 16.5 11.75 16.1642 11.75 15.75C11.75 15.3358 11.4142 15 11 15H9C8.58579 15 8.25 15.3358 8.25 15.75C8.25 16.1642 8.58579 16.5 9 16.5H11Z" fill="#4A4A4A"/>
</svg>

<svg viewBox="0 0 20 20" xmlns="http://www.w3.org/2000/svg"><path fill-rule="evenodd" d="M3.5 5.25c0-.966.784-1.75 1.75-1.75h9.5c.966 0 1.75.784 1.75 1.75v1.5a1.75 1.75 0 0 1-1.75 1.75h-9.5a1.75 1.75 0 0 1-1.75-1.75v-1.5Zm1.75-.25a.25.25 0 0 0-.25.25v1.5c0 .138.112.25.25.25h9.5a.25.25 0 0 0 .25-.25v-1.5a.25.25 0 0 0-.25-.25h-9.5Z" fill="#5C5F62"/><path d="M3.5 11.25c0-.966.784-1.75 1.75-1.75h.5a.75.75 0 0 1 0 1.5h-.5a.25.25 0 0 0-.25.25v.5a.75.75 0 0 1-1.5 0v-.5Z" fill="#5C5F62"/><path d="M3.5 14.75c0 .966.784 1.75 1.75 1.75h.5a.75.75 0 0 0 0-1.5h-.5a.25.25 0 0 1-.25-.25v-.5a.75.75 0 0 0-1.5 0v.5Z" fill="#5C5F62"/><path d="M14.75 9.5c.966 0 1.75.784 1.75 1.75v.5a.75.75 0 0 1-1.5 0v-.5a.25.25 0 0 0-.25-.25h-.5a.75.75 0 0 1 0-1.5h.5Z" fill="#5C5F62"/><path d="M14.75 16.5a1.75 1.75 0 0 0 1.75-1.75v-.5a.75.75 0 0 0-1.5 0v.5a.25.25 0 0 1-.25.25h-.5a.75.75 0 0 0 0 1.5h.5Z" fill="#5C5F62"/><path d="M11.75 10.25a.75.75 0 0 1-.75.75h-2a.75.75 0 0 1 0-1.5h2a.75.75 0 0 1 .75.75Z" fill="#5C5F62"/><path d="M11 16.5a.75.75 0 0 0 0-1.5h-2a.75.75 0 0 0 0 1.5h2Z" fill="#5C5F62"/></svg>
